X: 1302
T: An Irishman In Brittany
R: reel
M: 4/4
K: Edorian
z2{a/}ed cdAA|JBEBc(3ded{a/}dc|A2(3ABc d{a/}edc|{a/}dcBA cBAG|
E2{a/}ed cdAA|JBEBc(3ded{a/}dc|A2(3ABc d{a/}edc|dcBAfe|1 de3:|2 dB||
{a/}edBde z f2|Jg2{a/}gfez ef|J{a/}g2{a/}g/f/{a/}g2fed|JfedB {c/}A2Bd|
{a/}edBdezef|J{a/}gJ{a/}g2 fez ef|ga{a/}gf gfef|efga gf{a/}gf|
edBdez ef|J{a/}g3fez (3agf|{a/}g2{a/}gf{a/}gfed|fedB Az (3ABd|
{a/}edBdez2f|ga{a/}gfez ga|ba{a/}gez aba|{a/}ge{a/}fAdBcA|B2:|

